svgs/sharp-light/trash-can-slash.svg

<svg xmlns="http://www.w3.org/2000/svg" viewBox="0 0 640 512"><!--! Font Awesome Pro 6.6.0 by @fontawesome - https://fontawesome.com License - https://fontawesome.com/license (Commercial License) Copyright 2024 Fonticons, Inc. --><path d="M512 326l0-230 32 0 0-32-32 0-32 0-47.1 0L397.6 7.5 392.9 0 384 0 256 0l-8.9 0-4.7 7.5L207.1 64l-27 0 40.5 32L480 96l0 204.8L512 326zm0 163.1L500.4 480 480 480l-32 0-288 0 0-268.8L128 186l0 294 0 32 32 0 320 0 32 0 0-22.9zm-304-240L208 400l0 16 32 0 0-16 0-125.6-32-25.3zm96 75.8l0 75.1 0 16 32 0 0-16 0-49.8-32-25.3zm128-62l0-86.9 0-16-32 0 0 16 0 61.6 32 25.3zM244.9 64l20-32 110.3 0 20 32L244.9 64zM40.4 18L27.8 8.1 8.1 33.4l12.6 9.8L599.8 494.3l12.6 9.8 19.7-25.2L619.5 469 40.4 18z"/></svg>

<svg xmlns="http://www.w3.org/2000/svg" viewBox="0 0 640 512"><!--! Font Awesome Pro 6.4.0 by @fontawesome - https://fontawesome.com License - https://fontawesome.com/license (Commercial License) Copyright 2023 Fonticons, Inc. --><path d="M512 326V96h32V64H512 480 432.9L397.6 7.5 392.9 0H384 256h-8.9l-4.7 7.5L207.1 64h-27l40.5 32H480V300.8L512 326zm0 163.1L500.4 480H480 448 160V211.2L128 186V480v32h32H480h32V489.1zm-304-240V400v16h32V400 274.4l-32-25.3zm96 75.8V400v16h32V400 350.2l-32-25.3zm128-62V176 160H400v16 61.6l32 25.3zM244.9 64l20-32H375.1l20 32H244.9zM32.4 10L19.9 .1 .1 25.3l12.6 9.9L607.8 502.2l12.6 9.9 19.8-25.2-12.6-9.9L32.4 10z"/></svg>
